Adwaita++-Light/panel/16/megauptodate.svg

<svg height="16" width="16" xmlns="http://www.w3.org/2000/svg">
  <path d="m8 1a7 7 0 0 0 -7 7 7 7 0 0 0 7 7 7 7 0 0 0 7-7 7 7 0 0 0 -7-7zm-4 4h2l2 3 2-3h2v6h-2v-2.5l-1 1.5h-2l-1-1.5v2.5h-2z" fill="#444"/>
</svg>

<svg xmlns="http://www.w3.org/2000/svg" width="16" height="16" version="1.1">
 <defs>
  <style id="current-color-scheme" type="text/css">
   .ColorScheme-Text { color:#444444; } .ColorScheme-Highlight { color:#4285f4; }
  </style>
 </defs>
 <g transform="translate(-3,-3)">
  <path style="fill:currentColor" class="ColorScheme-Text" d="M 8 1 A 7 7 0 0 0 1 8 A 7 7 0 0 0 8 15 A 7 7 0 0 0 15 8 A 7 7 0 0 0 8 1 z M 4 5 L 6 5 L 8 8 L 10 5 L 12 5 L 12 11 L 10 11 L 10 8.5 L 9 10 L 7 10 L 6 8.5 L 6 11 L 4 11 L 4 5 z" transform="translate(3,3)"/>
 </g>
</svg>
